icons/book-2-line.svg

<svg xmlns="http://www.w3.org/2000/svg" width="24" height="24" fill="none"><g clip-path="url(#a)"><g><path fill="#121212" d="M21 18H6C5.73478 18 5.48043 18.1054 5.29289 18.2929C5.10536 18.4804 5 18.7348 5 19C5 19.2652 5.10536 19.5196 5.29289 19.7071C5.48043 19.8946 5.73478 20 6 20H21V22H6C5.20435 22 4.44129 21.6839 3.87868 21.1213C3.31607 20.5587 3 19.7956 3 19V4C3 3.46957 3.21071 2.96086 3.58579 2.58579C3.96086 2.21071 4.46957 2 5 2H21V18ZM5 16.05C5.162 16.017 5.329 16 5.5 16H19V4H5V16.05ZM16 9H8V7H16V9Z"/></g></g><defs><clipPath id="a"><rect width="24" height="24" fill="white"/></clipPath></defs></svg>

<svg width="24" height="24" fill="none" xmlns="http://www.w3.org/2000/svg"><g clip-path="url(#a)"><path d="M21 18H6a1 1 0 0 0 0 2h15v2H6a3 3 0 0 1-3-3V4a2 2 0 0 1 2-2h16v16ZM5 16.05c.162-.033.329-.05.5-.05H19V4H5v12.05ZM16 9H8V7h8v2Z" /></g><defs><clipPath id="a"><path fill="#fff" d="M0 0h24v24H0z"/></clipPath></defs></svg>
